src/ui/assets/logo.svg

<svg width="32" height="32" viewBox="0 0 32 32" fill="none" xmlns="http://www.w3.org/2000/svg">
<rect width="32" height="32" rx="5" fill="white"/>
<path d="M11 26C10.379 25.5343 9.875 24.9303 9.52786 24.2361C9.18073 23.5418 9 22.7762 9 22" stroke="black" stroke-width="2" stroke-linecap="round" stroke-linejoin="round"/>
<path d="M11 20.9299C11.96 21.3599 12.96 21.6699 13.99 21.8399" stroke="black" stroke-width="2" stroke-linecap="round" stroke-linejoin="round"/>
<path d="M7.34 18C6.48059 16.8424 6.01134 15.4417 6 14C6 9.58 10.48 6 16 6C21.52 6 26 9.58 26 14C25.985 14.6789 25.8739 15.3523 25.67 16" stroke="black" stroke-width="2" stroke-linecap="round" stroke-linejoin="round"/>
<path d="M9 22C9.53043 22 10.0391 21.7893 10.4142 21.4142C10.7893 21.0391 11 20.5304 11 20C11 19.4696 10.7893 18.9609 10.4142 18.5858C10.0391 18.2107 9.53043 18 9 18C8.46957 18 7.96086 18.2107 7.58579 18.5858C7.21071 18.9609 7 19.4696 7 20C7 20.5304 7.21071 21.0391 7.58579 21.4142C7.96086 21.7893 8.46957 22 9 22Z" stroke="black" stroke-width="2" stroke-linecap="round" stroke-linejoin="round"/>
<path d="M18.33 26.0001H18.24C18.1721 25.9777 18.1127 25.935 18.0698 25.8778C18.0269 25.8205 18.0025 25.7516 18 25.6801V15.6801C18 15.5916 18.0344 15.5066 18.096 15.4431C18.1576 15.3797 18.2416 15.3427 18.33 15.3401C18.41 15.3401 18.48 15.3701 18.54 15.4201L25.88 21.4201C25.9346 21.4627 25.9744 21.5215 25.9938 21.588C26.0131 21.6546 26.011 21.7255 25.9878 21.7908C25.9645 21.8561 25.9213 21.9124 25.8643 21.9518C25.8073 21.9911 25.7393 22.0115 25.67 22.0101H21.18L18.61 25.8601C18.5774 25.9036 18.5351 25.9388 18.4865 25.9631C18.4379 25.9874 18.3843 26.0001 18.33 26.0001Z" stroke="black" stroke-width="2" stroke-linecap="round" stroke-linejoin="round"/>
</svg>

<svg xmlns="http://www.w3.org/2000/svg" width="32" height="32" fill="none"><rect width="32" height="32" fill="#fff" rx="5"/><path stroke="#000" stroke-linecap="round" stroke-linejoin="round" stroke-width="2" d="M11 26a5 5 0 0 1-2-4M11 20.93c.96.43 1.96.74 2.99.91M7.34 18A6.8 6.8 0 0 1 6 14c0-4.42 4.48-8 10-8s10 3.58 10 8a7.19 7.19 0 0 1-.33 2"/><path stroke="#000" stroke-linecap="round" stroke-linejoin="round" stroke-width="2" d="M9 22a2 2 0 1 0 0-4 2 2 0 0 0 0 4ZM18.33 26h-.09a.35.35 0 0 1-.24-.32v-10a.34.34 0 0 1 .33-.34c.08 0 .15.03.21.08l7.34 6a.33.33 0 0 1-.21.59h-4.49l-2.57 3.85a.35.35 0 0 1-.28.14Z"/></svg>
